!!!COM:	Josquin des Prez
!!!CDT:	~1450-1521/08/27
!!!OPR:	Missa La sol fa re mi
!!!ONM:	2
!!!OTL:	Gloria
!!!AGN:	Mass; Gloria
!!!SCT:	NJE 11.2
!!!SCA:	New Josquin Edition 11.2
!!!voices: 4
!!!voices-OPR:	4
**kern	**kern	**kern	**kern
*staff4	*staff3	*staff2	*staff1
*Ivox	*Ivox	*Ivox	*Ivox
*I"Bassus	*I"Tenor	*I"Altus	*I"Superius
*I'B	*I'T	*I'A	*I'S
*>[A,B]	*>[A,B]	*>[A,B]	*>[A,B]
*>Gloria[A]	*>Gloria[A]	*>Gloria[A]	*>Gloria[A]
*>QuiTollis[B]	*>QuiTollis[B]	*>QuiTollis[B]	*>QuiTollis[B]
*clefF4	*clefGv2	*clefGv2	*clefG2
*k[]	*k[]	*k[]	*k[]
*>A	*>A	*>A	*>A
*M3/1	*M3/1	*M3/1	*M3/1
*met(O)	*met(O)	*met(O)	*met(O)
=1-	=1-	=1-	=1-
!!section: Et in terra pax
!!!OMD: Et in terra pax
0E	0.e	1B	0e
.	.	1c	.
1E	.	1B	1g
=2	=2	=2	=2
0F	2d\	1A	0a
.	2c\	.	.
.	0A	1.c	.
1F	.	.	1a
.	.	2d\	.
=3	=3	=3	=3
0E	0B	0e	2.g/
.	.	.	4a/
.	.	.	1.b
1r	[1e	1r	.
.	.	.	4a/
.	.	.	4b\
=4	=4	=4	=4
1E	2e\]	1e	2cc\
.	2d\	.	2.b\
1E	2c\	1e	.
.	.	.	4a/
.	2A/	.	1a
1E	1B	1e	.
.	.	.	2g#i/
=5	=5	=5	=5
1F	0.r	2.c\	1a
.	.	4d\	.
2E\	.	2e\	2r
2.F\	.	2c\	2a/
.	.	2f\	2a/
4D\	.	.	.
2E\	.	2e\	2g/
=6	=6	=6	=6
2F\	0.r	2c\	2a/
2D\	.	2.d\	2f/
2E\	.	.	2g/
.	.	4c\	.
2G\	.	1B	1e
1F	.	.	.
.	.	2A/	2d/
=7	=7	=7	=7
0E	0.r	1B	0e
.	.	2r	.
.	.	2.e\	.
1r	.	.	1r
.	.	4d\	.
.	.	4c\	.
.	.	4A/	.
=8	=8	=8	=8
1E	1e	1B	1g
1F	2d\	2r	0a
.	2c\	2A/	.
1F	1A	2c\	.
.	.	2d\	.
=9	=9	=9	=9
1E	1B	1e	1g
2r	2r	2r	1e
1E	1.e	2B\	.
.	.	2c\	2r
2E\	.	2B\	2g/
=10	=10	=10	=10
2F\	2d\	2A/	2f/
2E\	2c\	2G/	2g/
1F	1A	2.c\	1a
.	.	4d\	.
1E	1B	1e	1g
=11	=11	=11	=11
2r	2r	2r	1e
2C/	2e\	2g\	.
2D\	2d\	2f\	2r
2E\	2c\	2.e\	2g/
1F	1A	.	2a/
.	.	4c\	.
.	.	2d\	2a/
=12	=12	=12	=12
1E	1B	2e\	1g
.	.	2B\	.
2r	1e	2.c\	2e/
2E\	.	.	2g/
.	.	4B\	.
2F\	1d	2A/	2a/
2G\	.	2G/	2b\
=13	=13	=13	=13
2.A\	1.c	4c\	2.cc\
.	.	4d\	.
.	.	1e	.
4G\	.	.	4b\
2E\	.	.	2g/
2F\	2A/	2d\	1a
1E	1B	[1e	.
.	.	.	4g/
.	.	.	4f/
=14	=14	=14	=14
1r	0.r	0e]	2g/
.	.	.	2e/
1E	.	.	2.g/
.	.	.	4a/
2G\	.	1r	4b\
.	.	.	4cc\
2G\	.	.	2dd\
=15	=15	=15	=15
2A\	0.r	0.r	2cc\
2G\	.	.	2.b\
1A	.	.	.
.	.	.	4a/
.	.	.	1a
1B	.	.	.
.	.	.	2g#i/
=16	=16	=16	=16
2A\	[0.e	2r	2a/
1AA	.	1A	1cc
2AA/	.	2A/	2cc\
2AA/	.	2A/	2cc\
2E\	.	2G/	2b\
=17	=17	=17	=17
2r	0.e]	2A/	2cc\
2E\	.	2G/	2b\
2AA/	.	2A/	2cc\
2.E\	.	2G/	2b\
.	.	2E/	1g
4C/	.	.	.
2C/	.	2c\	.
=18	=18	=18	=18
2G\	2d\	2B\	0.r
1A	2c\	4A/	.
.	.	2f\	.
.	1A	.	.
.	.	4e\	.
2G\	.	1e	.
1F	1A	.	.
.	.	2d\	.
=19	=19	=19	=19
1E	0B	2e\	0.r
.	.	2.g\	.
2r	.	.	.
.	.	4f\	.
2G\	.	2d\	.
2B\	1r	2r	.
2A\	.	[2c\	.
=20	=20	=20	=20
2.c\	0.r	2c\]	2r
.	.	2e\	2g/
4B\	.	.	.
2G\	.	2d\	2b\
2F\	.	2.f\	2a/
2.A\	.	.	2.cc\
.	.	4e\	.
.	.	2c\	.
4B\	.	.	4b\
=21	=21	=21	=21
1c	0.r	1e	2.g/
.	.	.	2.cc\
1r	.	2f\	.
.	.	2.g\	2.b\
1r	.	.	.
.	.	8f#i\L	2.a/
.	.	8e\J	.
.	.	2f#i\	.
=22	=22	=22	=22
0.r	0.r	2g\	2.g/
.	.	2c\	.
.	.	.	2.a/
.	.	2d\	.
.	.	2.e\	2.g/
.	.	4d\	2.f/
.	.	2a\	.
=23	=23	=23	=23
0.r	0.r	2g\	2.e/
.	.	2c\	.
.	.	.	2.a/
.	.	2d\	.
.	.	2.e\	4g/
.	.	.	4e/
.	.	.	4g/
.	.	4c\	4a/
.	.	2d\	2f/
=24	=24	=24	=24
0C	0.e	2e\	2.e/
.	.	2.g\	.
.	.	.	4c/
.	.	.	2c/
.	.	4f\	.
.	.	2.e\	1g
2.c\	.	.	.
.	.	4d\	.
.	.	2c\	2a/
4B\	.	.	.
=25	=25	=25	=25
2G\	2d\	2B\	2b\
2.A\	2c\	2A/	2.cc\
.	0A	1c	.
4G\	.	.	4b\
4F\	.	.	2.a/
4E\	.	.	.
1D	.	2r	.
.	.	.	4g/
.	.	[2d\	4f/
.	.	.	4e/
=26	=26	=26	=26
2BB/	0.B	1d]	0d
2GG/	.	.	.
0G	.	2B\	.
.	.	2G/	.
.	.	1d	2r
.	.	.	2d/
=27	=27	=27	=27
0.r	0.r	2G/	1g
.	.	1c	.
.	.	.	2a/
.	.	2d\	2.b\
.	.	2.e\	.
.	.	.	4g/
.	.	.	[2g/
.	.	4c\	.
=28	=28	=28	=28
0.r	0.r	1c	2g/]
.	.	.	2cc\
.	.	2f\	2a/
.	.	2d\	2.b\
.	.	2.e\	.
.	.	.	4g/
.	.	.	4g/
.	.	4c\	4e/
=29	=29	=29	=29
0.r	0.r	4c\	2e/
.	.	4A/	.
.	.	2A/	2a/
.	.	2d\	2f/
.	.	2B\	2.g/
.	.	2.c\	.
.	.	.	4e/
.	.	.	4e/
.	.	4A/	4c/
=30	=30	=30	=30
0C	0e	2A/	2c/
.	.	2G/	1g
.	.	2.c\	.
.	.	.	2e/
.	.	4B\	.
1D	2d\	1A	[1f
.	2c\	.	.
=31	=31	=31	=31
1D	1A	1F	2f/]
.	.	.	4e/
.	.	.	4d/
1GG	0B	0G	2d/
.	.	.	2.g/
1r	.	.	.
.	.	.	4f/
.	.	.	4e/
.	.	.	4d/
=32	=32	=32	=32
2A\	0.r	1r	1c
2.c\	.	.	.
.	.	2r	1d
4B\	.	.	.
4G\	.	2G/	.
4B\	.	.	.
2.A\	.	2A/	1c
.	.	[2c\	.
4G\	.	.	.
=33	=33	=33	=33
4E\	0.r	4c\]	2r
4D\	.	4B\	.
4E\	.	4G/	2g/
4G\	.	4B\	.
2.F\	.	2.A/	2a/
.	.	.	2.cc\
4E\	.	4G/	.
2C/	.	4E/	.
.	.	4D/	4b\
2G\	.	4E/	4g/
.	.	4G/	4b\
=34	=34	=34	=34
2A\	0.r	2.F/	2.a/
2.c\	.	.	.
.	.	4E/	4g/
.	.	2C/	2e/
4B\	.	.	.
4G\	.	2G/	2b\
4B\	.	.	.
2.A\	.	2A/	2.cc\
.	.	2c\	.
4G\	.	.	4b\
=35	=35	=35	=35
0E	[0.e	4B\	2g/
.	.	4A/	.
.	.	2c\	1a
.	.	4B\	.
.	.	4A/	.
.	.	2B\	2g/
2r	.	1A	2a/
2A\	.	.	2cc\
=36	=36	=36	=36
2G\	1e]	2r	2b\
2A\	.	2e\	1cc
2F\	0d	2f\	.
2G\	.	2d\	2b\
2F\	.	2r	2a/
2G\	.	2d\	[2b\
=37	=37	=37	=37
2E\	1.c	2e\	2b\]
2F\	.	2c\	2a/
2E\	.	2r	2g/
2F\	2A/	2c\	1a
2D\	1B	2d\	.
2E\	.	2B\	2g/
=38	=38	=38	=38
1C	2r	1c	2a/
.	1e	.	2e/
1D	.	0A	0f
.	2d\	.	.
1AA	2c\	.	.
.	2A/	.	.
=39	=39	=39	=39
0.El	0.Bl	0.Gl	0.el
!!LO:LB:i:g=z
=40||	=40||	=40||	=40||
*>B	*>B	*>B	*>B
!!section: Qui tollis
!!!OMD: Qui tollis
*M2/1	*M2/1	*M2/1	*M2/1
*met(C|)	*met(C|)	*met(C|)	*met(C|)
0D	0r	0d	0r
=41	=41	=41	=41
1D	0r	1f	0a
1D	.	1f	.
=42	=42	=42	=42
1A	0r	1.e	1cc
1A	.	.	1cc
.	.	2c\	.
=43	=43	=43	=43
1.G	0r	1d	1b
.	.	1e	1g
4F\	.	.	.
4E\	.	.	.
=44	=44	=44	=44
1D	0r	1f	1a
1G	.	2e\	1b
.	.	2d\	.
=45	=45	=45	=45
1A	0r	1c	1cc
1B	.	1d	2b\
.	.	.	2a/
=46	=46	=46	=46
0c	0r	1.e	0g
.	.	[2c\	.
=47	=47	=47	=47
1r	[0e	2c\]	1r
.	.	4B\	.
.	.	4A/	.
1C	.	2c\	[1g
.	.	2B\	.
=48	=48	=48	=48
1C	0e]	1G	1g]
1C	.	1c	1g
=49	=49	=49	=49
0G	[0d	0B	0g
=50	=50	=50	=50
0D	0d]	1A	1.f
.	.	2r	.
.	.	[2A/	4e/
.	.	.	4d/
=51	=51	=51	=51
0A	1c	4A/]	2f/
.	.	4B\	.
.	.	4c\	1e
.	.	4d\	.
.	1A	2e\	.
.	.	2f\	4d/
.	.	.	4c/
=52	=52	=52	=52
0G	[0B	1.g	2e/
.	.	.	2d/
.	.	.	2r
.	.	4f\	[2d/
.	.	4e\	.
=53	=53	=53	=53
1r	0B_	1.d	2d/]
.	.	.	4c/
.	.	.	4B/
1G	.	.	2B/
.	.	[2B\	4A/
.	.	.	4G/
=54	=54	=54	=54
1.G	0B]	2B\]	1G
.	.	4A/	.
.	.	4G/	.
.	.	1G	2r
4F\	.	.	[2g/
4E\	.	.	.
=55	=55	=55	=55
2E\	0r	0r	2g/]
2C/	.	.	1g
[1G	.	.	.
.	.	.	4f/
.	.	.	4e/
=56	=56	=56	=56
2G\]	0r	0r	2e/
2A\	.	.	2c/
2B\	.	.	[1g
[2c\	.	.	.
=57	=57	=57	=57
2c\]	0r	1r	2g/]
4B\	.	.	2a/
4A\	.	.	.
2G\	.	2r	2b\
[2A\	.	[2c\	[2cc\
=58	=58	=58	=58
2A\]	0r	2c\]	2cc\]
4G\	.	2d\	4b\
4F\	.	.	4a/
2E\	.	2e\	2g/
2D\	.	[2f\	[2a/
=59	=59	=59	=59
2F\	0r	2f\]	2a/]
2G\	.	4e\	4g/
.	.	4d\	4f/
1A	.	2c\	1e
.	.	2A/	.
=60	=60	=60	=60
1r	[0e	1c	1r
[1E	.	[1B	[1g
=61	=61	=61	=61
2E\]	0e_	2B\]	2g/]
2E\	.	2B\	2g/
1E	.	1B	1g
=62	=62	=62	=62
2C/	0e]	2c\	2g/
2C/	.	2c\	2g/
2C/	.	2c\	2g/
2C/	.	2c\	2e/
=63	=63	=63	=63
1D	0d	2A/	1f
.	.	2.B\	.
1BB	.	.	1g
.	.	4A/	.
.	.	[2G/	.
=64	=64	=64	=64
0AA	1c	2G/]	0a
.	.	4F#i/	.
.	.	4E/	.
.	1A	4F#i/	.
.	.	4G/	.
.	.	4A/	.
.	.	4F#i/	.
=65	=65	=65	=65
2GG/	[0B	0G	[0d
1G	.	.	.
4F\	.	.	.
4E\	.	.	.
=66	=66	=66	=66
2.G\	0B_	2r	0d]
.	.	2G/	.
4F\	.	.	.
2D\	.	2F/	.
2GG/	.	[2G/	.
=67	=67	=67	=67
2r	0B_	4G/]	0r
.	.	4A/	.
1G	.	4B\	.
.	.	4c\	.
.	.	2d\	.
4F\	.	2e\	.
4E\	.	.	.
=68	=68	=68	=68
2.G\	0B]	2d\	1r
.	.	2G/	.
4F\	.	.	.
2D\	.	2F/	1d
2GG/	.	[2G/	.
=69	=69	=69	=69
2.C/	2r	2G/]	2.e/
.	1e	4F/	.
4D\	.	4E/	4f/
4E\	.	2E/	4g/
4F\	.	.	4a/
2G\	2d\	2B\	[2b\
=70	=70	=70	=70
2A\	2c\	2c\	4b\]
.	.	.	4a/
2F\	2A/	2d\	1a
1E	1B	1e	.
.	.	.	2g#i/
=71	=71	=71	=71
2.AA/	2r	0r	1a
.	1A	.	.
4BB/	.	.	.
4C/	.	.	1r
4D\	.	.	.
[2E\	2G/	.	.
=72	=72	=72	=72
4E\]	2F/	0r	0r
4D\	.	.	.
1D	2D/	.	.
.	1E	.	.
2C#i/	.	.	.
=73	=73	=73	=73
1D	2r	2.A/	0r
.	1A	.	.
.	.	4B\	.
1r	.	4c\	.
.	.	4d\	.
.	2G/	[2e\	.
=74	=74	=74	=74
0r	2F/	4e\]	0r
.	.	4d\	.
.	2D/	1d	.
.	1E	.	.
.	.	2c#i\	.
=75	=75	=75	=75
2r	0r	2d\	2.a/
2D\	.	1a	.
.	.	.	4b\
2C/	.	.	4cc\
.	.	.	4dd\
2C/	.	2g\	[2ee\
=76	=76	=76	=76
2D\	0r	2f\	4ee\]
.	.	.	4dd\
2BB/	.	2d\	1dd
1AA	.	1e	.
.	.	.	2cc#i\
=77	=77	=77	=77
0r	0r	2d\	2dd\
.	.	2f\	2a/
.	.	2e\	2cc\
.	.	2g\	2b\
=78	=78	=78	=78
0r	0r	2f\	2a/
.	.	1e	2g/
.	.	.	1f
.	.	2d\	.
=79	=79	=79	=79
2r	2r	2e\	1e
2A\	1e	2c\	.
2G\	.	1B	1r
2G\	2d\	.	.
=80	=80	=80	=80
2A\	2c\	1r	2r
2F\	2A/	.	2a/
1E	1B	2r	2g/
.	.	2e\	2g/
=81	=81	=81	=81
1r	1r	2d\	2a/
.	.	2d\	2f/
3A\V	2r	2e\	1e
3A\	.	.	.
.	[2e\	2c\	.
3A\Z	.	.	.
=82	=82	=82	=82
3%2GV	2e\]	1B	1r
.	2d\	.	.
3G\Z	.	.	.
3A\V	2c\	1r	3a/V
3%2FZ	.	.	3a/
.	2A/	.	.
.	.	.	3a/Z
=83	=83	=83	=83
1E	1B	3e\V	3%2gV
.	.	3e\	.
.	.	3e\Z	3g/Z
1r	1r	3%2dV	3a/V
.	.	.	3%2fZ
.	.	3d\Z	.
=84	=84	=84	=84
2r	2r	3e\V	1e
.	.	3%2cZ	.
2A\	1e	.	.
2G\	.	1B	1r
2G\	2d\	.	.
=85	=85	=85	=85
2A\	2c\	1r	2r
2F\	2A/	.	2a/
1E	1B	2r	2g/
.	.	2e\	2g/
=86	=86	=86	=86
1r	0r	2d\	2a/
.	.	2d\	2f/
[1E	.	2e\	1e
.	.	2c\	.
=87	=87	=87	=87
1E]	2r	1B	1r
.	1e	.	.
1G	.	1r	1b
.	2d\	.	.
=88	=88	=88	=88
1A	2c\	2r	1cc
.	2A/	2e\	.
2r	1B	2d\	2b\
2E\	.	[2e\	[2g/
=89	=89	=89	=89
1E	2r	2e\]	4g/]
.	.	.	4f/
.	1e	4d\	4g/
.	.	4c\	4a/
1G	.	1B	2b\
.	2d\	.	2b\
=90	=90	=90	=90
1A	2c\	2r	1e
.	2A/	2e\	.
2r	1B	2d\	2r
2E\	.	2e\	2g/
=91	=91	=91	=91
1E	2r	2B\	2.g/
.	1e	1g	.
.	.	.	4a/
1G	.	.	4b\
.	.	.	4cc\
.	2d\	2g\	[2b\
=92	=92	=92	=92
1A	1c	2f\	4b\]
.	.	.	4a/
.	.	1e	1cc
1F	1A	.	.
.	.	2d\	4b\
.	.	.	4a/
=93	=93	=93	=93
0E	[0B	1e	[0g
.	.	2r	.
.	.	2E/	.
=94	=94	=94	=94
2r	0B]	2.E/	0g]
2E\	.	.	.
.	.	4F/	.
2.E\	.	4G/	.
.	.	4A/	.
.	.	[2B\	.
4F\	.	.	.
=95	=95	=95	=95
4G\	0r	4B\]	0r
4A\	.	4c\	.
2.B\	.	2.d\	.
4A\	.	4A/	.
[2A\	.	2c\	.
=96	=96	=96	=96
2A\]	0r	1B	1r
2G#i\	.	.	.
2.A\	.	[1A	2r
.	.	.	2e/
4AA/	.	.	.
=97	=97	=97	=97
1AA	2r	1A]	2.e/
.	1e	.	.
.	.	.	4f/
1r	.	1r	4g/
.	.	.	4a/
.	2d\	.	[2b\
=98	=98	=98	=98
0r	2c\	0r	4b\]
.	.	.	4a/
.	2A/	.	1a
.	1B	.	.
.	.	.	2g#i/
=99	=99	=99	=99
2r	2r	2r	2a/
2A\	1e	2A/	2a/
2A\	.	2c\	2a/
2D\	2d\	2d\	2a/
=100	=100	=100	=100
1A	2c\	1e	1cc
.	2A/	.	.
2.G\	1B	2r	2b\
.	.	2E/	2g/
4F\	.	.	.
=101	=101	=101	=101
2D\	2r	2F/	2a/
2E\	1e	2G/	2g/
2r	.	2A/	2cc\
2G\	2d\	2B\	2b\
=102	=102	=102	=102
2A\	2c\	2c\	2e/
2F\	2A/	2d\	2a/
2E\	1B	2.e\	2.g/
[2G\	.	.	.
.	.	4d\	4f/
=103	=103	=103	=103
4G\]	0r	2B\	2.d/
4F\	.	.	.
2.D\	.	2.d\	.
.	.	.	4e/
.	.	.	4f/
4E\	.	4c\	4g/
4F\	.	[2A/	4a/
4G\	.	.	4b\
=104	=104	=104	=104
2.A\	1r	4A/]	2.cc\
.	.	4B\	.
.	.	4c\	.
4B\	.	4d\	4b\
2.c\	2r	2e\	2g/
.	[2e\	2A/	2c/
4B\	.	.	.
=105	=105	=105	=105
2G\	2e\]	2r	2g/
2B\	2d\	2d\	2f/
2.A\	2c\	4e\	2.cc\
.	.	4c\	.
.	2A/	[2e\	.
4G\	.	.	4b\
=106	=106	=106	=106
2E\	1B	4e\]	2g/
.	.	4d\	.
2G\	.	2B\	2d/
2.F\	2r	4c\	2.a/
.	.	4A/	.
.	[2A/	[2c\	.
4E\	.	.	4g/
=107	=107	=107	=107
2C/	2A/]	2c\]	2e/
2E\	2G/	2B\	2g/
2.D\	2F/	1d	2a/
.	2D/	.	2b\
4C/	.	.	.
=108	=108	=108	=108
0AA	[0El	2c\	1.cc
.	.	2A/	.
.	.	1c	.
.	.	.	4b\
.	.	.	4a/
=109	=109	=109	=109
1r	0E_	[0Bl	[0gl
1E	.	.	.
=110	=110	=110	=110
0El	0E]	0B]	0g]
==	==	==	==
*-	*-	*-	*-
!!!RDF**kern: l=long note in original notation
!!!RDF**kern: i=editorial accidental
!!!ENC: Jesse Rodin; Victoria Chang 2011/05/04
!!!END: 2011/05/04/
!!!EED:	Jesse Rodin
!!!EEV:	2011/09/19/
!!attribution-level@Jos: 1 (secure)
!!!ONB:	Translated from MusicXML and edited on 2011/09/19/ by Craig Sapp
!!muse2ps: T^@{OPR}^u^@{ONM}{. }@{OTL}^C^@{COM}\n@{SCT}^i2I100v85,90,85,150c100Q16
